packages/kronos-fna-icons/src/checkmark.svg

<?xml version="1.0" encoding="UTF-8"?>
<svg width="20px" height="20px" viewBox="0 0 20 20" version="1.1" xmlns="http://www.w3.org/2000/svg" xmlns:xlink="http://www.w3.org/1999/xlink">
    <!-- Generator: Sketch 50.2 (55047) - http://www.bohemiancoding.com/sketch -->
    <title>checkmark</title>
    <desc>Created with Sketch.</desc>
    <defs></defs>
    <g id="checkmark" stroke="none" stroke-width="1" fill="none" fill-rule="evenodd">
        <g fill="#000000" fill-rule="nonzero" id="Shape">
            <path d="M5.7780952,19.2099393 L0.423844286,12.4651356 C-0.272972583,11.589354 -0.0916503439,10.3421154 0.82844763,9.67777863 C1.75004413,9.01058453 3.05826161,9.18631231 3.75507848,10.0635225 L7.27812463,14.4981489 L16.1359408,0.937107303 C16.7458429,0.00560718757 18.0345794,-0.280129044 19.0146187,0.301344187 C19.9946579,0.882817419 20.294364,2.11005453 19.6829634,3.04441201 L9.21722362,19.0599278 C8.85457914,19.6185421 8.22669469,19.9671403 7.53886901,19.9971426 C7.50590133,20 7.47593071,20 7.44296303,20 C6.79110209,20 6.17370736,19.7099777 5.7780952,19.2099393 Z"></path>
        </g>
    </g>
</svg>

<svg viewBox="0 0 20 20" xmlns="http://www.w3.org/2000/svg">
    <title>checkmark</title>
    <path d="M5.778 19.21L.424 12.465c-.697-.876-.515-2.123.405-2.787.922-.667 2.23-.491 2.927.386l3.523 4.435L16.137.938c.61-.932 1.899-1.217 2.879-.636.98.581 1.28 1.809.668 2.743L9.218 19.061a2.102 2.102 0 0 1-1.678.937c-.033.003-.063.003-.096.003-.652 0-1.269-.29-1.665-.79l-.001-.001z" />
</svg>
